X:40
T:The Goddesses
M:C|
L:1/8
K:F
G2 GA B2 AG | A2 AB c2 BA | G2 GA B2 AG | d2 d2 d4 ||
f2 dc B3 d | c2 AG F3 A | B2 G2 F3 A | G2 G2 G4 ||
%
%
